X:1
T:The Maid on the Shore
M:3/4
L:1/4
K:C
 C| F E D| G G G/2G/2| E C C| C2F/2-G/2| c G G| c d e| d3| B2 c/2d/2|\
 e- d c| d c B| c- B A| E F G| F E D| E F G| E C2-| C2||
